wordpress/wp-content/themes/bluearrow-2017/assets/images/logo-gofore.svg

<svg width="106" height="26" viewBox="0 0 106 26" xmlns="http://www.w3.org/2000/svg"><title>logo-gofore</title><path d="M64.3 4.4c-4.7 0-8.6 3.9-8.6 8.6 0 4.7 3.9 8.6 8.6 8.6 4.7 0 8.6-3.9 8.6-8.6 0-4.7-3.8-8.6-8.6-8.6zm0 13.8c-2.8 0-5.2-2.3-5.2-5.2 0-2.8 2.3-5.2 5.2-5.2 2.8 0 5.2 2.3 5.2 5.2 0 2.8-2.3 5.2-5.2 5.2zM29.6 4.4C24.9 4.4 21 8.3 21 13c0 4.7 3.9 8.6 8.6 8.6 4.7 0 8.6-3.9 8.6-8.6 0-4.7-3.9-8.6-8.6-8.6zm0 13.8c-2.8 0-5.2-2.3-5.2-5.2 0-2.8 2.3-5.2 5.2-5.2 2.8 0 5.2 2.3 5.2 5.2-.1 2.8-2.4 5.2-5.2 5.2zM42 21h3v-6.3h7.5v-3.4H45V8.4h7.7V5H42v16zm62.3-12.621V5H93.1v16h11.2v-3.379h-7.7V14.74h7.4V11.36h-7.4V8.478h7.7v-.1zm-15.1 2.584C89.2 7.683 86.5 5 83.1 5h-6.8v16h3.4v-4.075h2.9L85.1 21h4l-3-4.87c.5-.298.9-.596 1.3-.993 1.2-1.094 1.9-2.584 1.8-4.174zM85.1 12.8c-.5.5-1.1.8-1.8.8h-3.4V8.4h3.4c1.4 0 2.6 1.1 2.6 2.6-.1.6-.3 1.3-.8 1.8zm-69.8 2.6h-.5v1.3c-1 .9-2.2 1.4-3.5 1.4-1.4 0-2.7-.5-3.6-1.5-1-1-1.5-2.3-1.5-3.6 0-1.4.5-2.7 1.5-3.6 1-1 2.3-1.5 3.6-1.5 1.4 0 2.7.5 3.6 1.5L17.3 7c-1.6-1.6-3.8-2.5-6.1-2.5S6.7 5.4 5.1 7c-1.6 1.6-2.5 3.8-2.5 6.1s.9 4.5 2.5 6.1c1.6 1.6 3.8 2.5 6.1 2.5s4.5-.9 6.1-2.5c.2-.2.4-.4.6-.7 0-1.1-.5-3.1-2.6-3.1zm-.4-4.3h-4.1v3.4h4.6c1.3 0 2.3.6 2.9 1.6v-1.2c0-1.1-.3-2-.8-2.7-.7-.7-1.6-1.1-2.6-1.1z" fill="#FFF" fill-rule="evenodd"/></svg>

<?xml version="1.0" encoding="UTF-8"?>
<svg width="106px" height="26px" viewBox="0 0 106 26" version="1.1" xmlns="http://www.w3.org/2000/svg" xmlns:xlink="http://www.w3.org/1999/xlink">
    <!-- Generator: Sketch 41.2 (35397) - http://www.bohemiancoding.com/sketch -->
    <title>logo-gofore</title>
    <desc>Created with Sketch.</desc>
    <defs></defs>
    <g id="export" stroke="none" stroke-width="1" fill="none" fill-rule="evenodd">
        <g id="logo-gofore" fill="#FFFFFF">
            <path d="M64.3,4.4 C59.6,4.4 55.7,8.3 55.7,13 C55.7,17.7 59.6,21.6 64.3,21.6 C69,21.6 72.9,17.7 72.9,13 C72.9,8.3 69.1,4.4 64.3,4.4 L64.3,4.4 Z M64.3,18.2 C61.5,18.2 59.1,15.9 59.1,13 C59.1,10.2 61.4,7.8 64.3,7.8 C67.1,7.8 69.5,10.1 69.5,13 C69.5,15.8 67.2,18.2 64.3,18.2 L64.3,18.2 Z M29.6,4.4 C24.9,4.4 21,8.3 21,13 C21,17.7 24.9,21.6 29.6,21.6 C34.3,21.6 38.2,17.7 38.2,13 C38.2,8.3 34.3,4.4 29.6,4.4 L29.6,4.4 Z M29.6,18.2 C26.8,18.2 24.4,15.9 24.4,13 C24.4,10.2 26.7,7.8 29.6,7.8 C32.4,7.8 34.8,10.1 34.8,13 C34.7,15.8 32.4,18.2 29.6,18.2 L29.6,18.2 Z M42,21 L45,21 L45,14.7 L52.5,14.7 L52.5,11.3 L45,11.3 L45,8.4 L52.7,8.4 L52.7,5 L42,5 L42,21 Z M104.3,8.37888199 L104.3,5 L93.1,5 L93.1,21 L104.3,21 L104.3,17.621118 L96.6,17.621118 L96.6,14.7391304 L104,14.7391304 L104,11.3602484 L96.6,11.3602484 L96.6,8.47826087 L104.3,8.47826087 L104.3,8.37888199 Z M89.2,10.9627329 C89.2,7.68322981 86.5,5 83.1,5 L76.3,5 L76.3,21 L79.7,21 L79.7,16.9254658 L82.6,16.9254658 L85.1,21 L89.1,21 L86.1,16.1304348 C86.6,15.8322981 87,15.5341615 87.4,15.136646 C88.6,14.0434783 89.3,12.552795 89.2,10.9627329 L89.2,10.9627329 Z M85.1,12.8 C84.6,13.3 84,13.6 83.3,13.6 L79.9,13.6 L79.9,8.4 L83.3,8.4 C84.7,8.4 85.9,9.5 85.9,11 C85.8,11.6 85.6,12.3 85.1,12.8 L85.1,12.8 Z M15.3,15.4 L14.8,15.4 L14.8,16.7 C13.8,17.6 12.6,18.1 11.3,18.1 C9.9,18.1 8.6,17.6 7.7,16.6 C6.7,15.6 6.2,14.3 6.2,13 C6.2,11.6 6.7,10.3 7.7,9.4 C8.7,8.4 10,7.9 11.3,7.9 C12.7,7.9 14,8.4 14.9,9.4 L17.3,7 C15.7,5.4 13.5,4.5 11.2,4.5 C8.9,4.5 6.7,5.4 5.1,7 C3.5,8.6 2.6,10.8 2.6,13.1 C2.6,15.4 3.5,17.6 5.1,19.2 C6.7,20.8 8.9,21.7 11.2,21.7 C13.5,21.7 15.7,20.8 17.3,19.2 C17.5,19 17.7,18.8 17.9,18.5 C17.9,17.4 17.4,15.4 15.3,15.4 L15.3,15.4 Z M14.9,11.1 L10.8,11.1 L10.8,14.5 L15.4,14.5 C16.7,14.5 17.7,15.1 18.3,16.1 L18.3,14.9 C18.3,13.8 18,12.9 17.5,12.2 C16.8,11.5 15.9,11.1 14.9,11.1 L14.9,11.1 Z" id="Shape"></path>
        </g>
    </g>
</svg>
